svg/weather/sparkles_2_line.svg

<?xml version="1.0" encoding="UTF-8"?>
<svg width="24px" height="24px" viewBox="0 0 24 24" version="1.1" xmlns="http://www.w3.org/2000/svg" xmlns:xlink="http://www.w3.org/1999/xlink">
    <title>sparkles_2_line</title>
    <g id="Icon" stroke="none" stroke-width="1" fill="none" fill-rule="evenodd">
        <g id="Weather" transform="translate(-865.000000, -96.000000)" fill-rule="nonzero">
            <g id="sparkles_2_line" transform="translate(865.000000, 96.000000)">
                <path d="M24,0 L24,24 L0,24 L0,0 L24,0 Z M12.5935,23.2578 L12.5819,23.2595 L12.5109,23.295 L12.4919,23.2987 L12.4767,23.295 L12.4057,23.2595 C12.3958,23.2564 12.387,23.259 12.3821,23.2649 L12.378,23.2758 L12.3609,23.7031 L12.3659,23.7235 L12.3769,23.7357 L12.4805,23.8097 L12.4953,23.8136 L12.5071,23.8097 L12.6107,23.7357 L12.6233,23.7197 L12.6267,23.7031 L12.6096,23.2758 C12.6076,23.2657 12.601,23.2593 12.5935,23.2578 Z M12.8584,23.1453 L12.8445,23.1473 L12.6598,23.2397 L12.6499,23.2499 L12.6472,23.2611 L12.6651,23.6906 L12.6699,23.7034 L12.6784,23.7105 L12.8793,23.8032 C12.8914,23.8069 12.9022,23.803 12.9078,23.7952 L12.9118,23.7812 L12.8777,23.1665 C12.8753,23.1546 12.8674,23.147 12.8584,23.1453 Z M12.143,23.1473 C12.1332,23.1424 12.1222,23.1453 12.1156,23.1526 L12.1099,23.1665 L12.0758,23.7812 C12.0751,23.7927 12.0828,23.8019 12.0926,23.8046 L12.1083,23.8032 L12.3092,23.7105 L12.3186,23.7024 L12.3225,23.6906 L12.3404,23.2611 L12.3372,23.2485 L12.3278,23.2397 L12.143,23.1473 Z" id="MingCute"></path>
                <path d="M13.9998,6.23975 C14.3346,6.23975 14.5885,6.38101 14.7771,6.58179 C15.0818,6.90618 15.2109,7.38306 15.401,7.7784 C16.3775,9.80963 17.9155,11.5147 19.8297,12.6887 L20.2641119,12.944624 C20.6567809,13.1839609 20.9989751,13.4626667 21.000003,13.998 C21.0014,14.7301 20.3644,14.984 19.8303,15.3111 C17.9155,16.4855 16.3775,18.1906 15.401,20.2218 C15.2109,20.6172 15.0818,21.094 14.7771,21.4184 C14.5885,21.6191 14.3346,21.7604 13.9998,21.7604 C13.6651,21.7604 13.4113,21.619 13.2228,21.4182 C13.0468,21.2308286 12.9305551,20.9964694 12.8276606,20.7559854 L12.6775312,20.3957738 C12.6522449,20.3366755 12.6263429,20.2784714 12.5991,20.2218 C11.6226,18.1905 10.0845,16.4855 8.17007,15.3113 L7.84891973,15.1206168 C7.41612826,14.861692 6.9986093,14.5647 7.00000299,13.9975 C7.00183,13.2679 7.63693,13.0156 8.16974,12.6891 C10.0845,11.5147 11.6226,9.80964 12.5989,7.77862 C12.7889,7.38329 12.9182,6.90631 13.2228,6.58195 C13.4113,6.3812 13.665,6.23975 13.9998,6.23975 Z M13.999,9.41575 C12.958,11.2283 11.5639,12.8336 9.81801,13.9997 C11.561,15.1773 12.9487,16.7715 14,18.5827 C15.0528,16.769 16.4495,15.1954 18.18,13.9997 C16.4424,12.8136 15.0512,11.2284 13.999,9.41575 Z M6.74681,5.82522 C6.89604,6.0084 6.98506,6.21589 7.08616,6.42615 C7.36055111,6.99693222 7.77506272,7.48605519 8.28846793,7.84815527 L8.48555,7.9779 C9.34177857,8.5029 9.37428832,9.38715624 8.60676568,9.94150771 L8.48564,10.0221 C7.88091,10.393 7.39486,10.9318 7.08626,11.5737 L6.97227125,11.8160913 C6.87490347,12.0168449 6.76243,12.2073143 6.56613,12.3336 C6.25087,12.5364 5.74935,12.5364 5.43408,12.3336 C5.16916,12.1632 5.04458,11.8456 4.91406,11.5739 C4.60535,10.9318 4.1193,10.393 3.51466,10.0221 C3.33618,9.91269 3.16607,9.80852 3.01917,9.65543 C2.72387,9.25643 2.72398,8.742 3.02012,8.34348 C3.17032,8.1873 3.33077,8.09065 3.51456,7.97796 C4.11933,7.60706 4.60536,7.06827 4.91402,6.42623 C5.01772,6.21046 5.10146,6.01177 5.25326,5.82538 C5.66343,5.42096 6.33654,5.42094 6.74681,5.82522 Z M6.00026,8.421 C5.88471,8.56884 5.75574,8.70765 5.62366,8.84074 L5.45726,9 L5.62367,9.15931 C5.75613,9.2928 5.87994,9.43358 6.00026,9.578 C6.11872,9.43235 6.24433,9.29254 6.37657,9.15927 L6.54126,9 L6.37653,8.84074 C6.24479,8.70798 6.11391,8.5698 6.00026,8.421 Z M10.00001,2 C10.5523,2 11.00001,2.44772 11.00001,3 C11.5523,3 12.00001,3.44772 12.00001,4 C12.00001,4.55228 11.5523,5 11.00001,5 C11.00001,5.55228 10.5523,6 10.00001,6 C9.44772,6 9.00001,5.55228 9.00001,5 C8.44772,5 8.00001,4.55228 8.00001,4 C8.00001,3.44772 8.44772,3 9.00001,3 C9.00001,2.44772 9.44772,2 10.00001,2 Z" id="形状" fill="#09244B"></path>
            </g>
        </g>
    </g>
</svg>

<svg xmlns="http://www.w3.org/2000/svg" width="24" height="24"><g fill="none" fill-rule="nonzero"><path d="M24 0v24H0V0h24ZM12.594 23.258l-.012.002-.071.035-.02.004-.014-.004-.071-.036c-.01-.003-.019 0-.024.006l-.004.01-.017.428.005.02.01.013.104.074.015.004.012-.004.104-.074.012-.016.004-.017-.017-.427c-.002-.01-.009-.017-.016-.018Zm.264-.113-.014.002-.184.093-.01.01-.003.011.018.43.005.012.008.008.201.092c.012.004.023 0 .029-.008l.004-.014-.034-.614c-.003-.012-.01-.02-.02-.022Zm-.715.002a.023.023 0 0 0-.027.006l-.006.014-.034.614c0 .012.007.02.017.024l.015-.002.201-.093.01-.008.003-.011.018-.43-.003-.012-.01-.01-.184-.092Z"/><path fill="#09244B" d="M14 6.24c.335 0 .588.141.777.342.305.324.434.801.624 1.196a11.71 11.71 0 0 0 4.429 4.91l.434.257c.393.239.735.518.736 1.053.001.732-.636.986-1.17 1.313a11.711 11.711 0 0 0-4.429 4.91c-.19.396-.32.873-.624 1.197-.188.201-.442.342-.777.342s-.589-.141-.777-.342c-.176-.187-.292-.422-.395-.662l-.15-.36a4.365 4.365 0 0 0-.079-.174 11.71 11.71 0 0 0-4.429-4.91l-.321-.191c-.433-.26-.85-.556-.849-1.123.002-.73.637-.982 1.17-1.309a11.71 11.71 0 0 0 4.429-4.91c.19-.396.32-.873.624-1.197.188-.2.442-.342.777-.342Zm-.001 3.176c-1.041 1.812-2.435 3.418-4.181 4.584 1.743 1.177 3.13 2.771 4.182 4.583 1.053-1.814 2.45-3.388 4.18-4.583-1.738-1.186-3.129-2.772-4.181-4.584Zm-7.252-3.59c.149.182.238.39.34.6.274.57.688 1.06 1.201 1.422l.198.13c.856.525.888 1.41.12 1.964l-.12.08a3.7 3.7 0 0 0-1.4 1.552l-.114.242c-.097.2-.21.391-.406.518-.315.202-.817.202-1.132 0-.265-.17-.39-.488-.52-.76a3.701 3.701 0 0 0-1.4-1.552c-.178-.11-.348-.213-.495-.367a1.081 1.081 0 0 1 .001-1.312c.15-.156.31-.252.495-.365a3.7 3.7 0 0 0 1.399-1.552c.104-.216.187-.414.34-.6a1.071 1.071 0 0 1 1.493 0ZM6 8.42a4.789 4.789 0 0 1-.376.42L5.457 9l.167.16c.132.133.256.274.376.418.119-.146.244-.285.377-.419L6.54 9l-.164-.16A4.386 4.386 0 0 1 6 8.422ZM10 2a1 1 0 0 1 1 1 1 1 0 1 1 0 2 1 1 0 1 1-2 0 1 1 0 1 1 0-2 1 1 0 0 1 1-1Z"/></g></svg>
